scr/img/Alibaba_Logo.svg

<svg width="150" height="112" viewBox="0 0 150 112" fill="none" xmlns="http://www.w3.org/2000/svg">
<path d="M11.6127 95.0886H4.4502L15.4752 73.8833H23.3877L33.9252 95.0886H25.9752L24.3627 91.2806H13.3002L11.6127 95.0886ZM22.4502 86.6513L19.0377 78.9233L15.4377 86.6513H22.4502Z" fill="#FF6600"/>
<path d="M35.55 73.8826H42.4125V95.0879H35.55V73.8826Z" fill="#FF6600"/>
<path d="M45.8999 73.8826H52.7624V78.2132H45.8999V73.8826ZM45.8999 80.3039H52.7624V95.0879H45.8999V80.3039Z" fill="#FF6600"/>
<path d="M56.5092 73.8662H63.3717V82.4155C64.1967 81.5942 65.0967 80.9595 66.1092 80.5489C67.1217 80.1382 68.2092 79.9142 69.4092 79.9142C71.7342 79.9142 73.6092 80.6609 75.0342 82.1542C76.4592 83.6475 77.1717 85.6262 77.1717 88.0529C77.1717 90.2929 76.4592 92.0849 75.0717 93.4289C73.6842 94.7729 71.8092 95.4449 69.4842 95.4449C68.2092 95.4449 67.0467 95.2209 65.9967 94.7355C64.9467 94.2875 64.0842 93.5782 63.3342 92.6822C63.3342 93.1675 63.3342 93.6155 63.2592 94.0262C63.2217 94.4369 63.1467 94.7729 63.0717 95.0715H56.2092C56.2842 94.8102 56.3592 94.4369 56.3967 94.0262C56.4342 93.6155 56.4717 93.1302 56.4717 92.6075V73.8662H56.5092ZM70.2717 87.7542C70.2717 86.4475 69.9717 85.4395 69.3342 84.6555C68.7342 83.9089 67.8717 83.5355 66.8217 83.5355C65.6967 83.5355 64.8342 83.9089 64.1967 84.6182C63.5967 85.3275 63.2967 86.4102 63.2967 87.7915C63.2967 89.0982 63.5967 90.1062 64.1967 90.8155C64.7967 91.5249 65.6592 91.8982 66.7467 91.8982C67.8342 91.8982 68.6592 91.5249 69.2967 90.7782C69.9342 90.0315 70.2717 89.0235 70.2717 87.7542Z" fill="#FF6600"/>
<path d="M92.8463 92.7118C92.2088 93.5704 91.3463 94.2051 90.2963 94.6158C89.2463 95.0264 88.0088 95.2504 86.5088 95.2504C84.4088 95.2504 82.7588 94.8771 81.6338 94.1304C80.5088 93.3838 79.9463 92.3384 79.9463 90.9571C79.9463 89.0904 80.9213 87.7464 82.8713 86.9251C84.8213 86.1038 88.1213 85.6558 92.7338 85.6184C92.7338 85.5811 92.7338 85.5438 92.7338 85.4691C92.7338 85.3945 92.7338 85.3198 92.7338 85.2825C92.7338 84.5358 92.5088 83.9758 92.0588 83.6025C91.6088 83.2291 90.9338 83.0425 89.9963 83.0425C89.1713 83.0425 88.5338 83.1918 88.0838 83.4531C87.6338 83.7144 87.3713 84.1251 87.2963 84.6851H80.9588C80.9963 83.0425 81.7838 81.8105 83.2838 81.0265C84.8213 80.2425 87.1463 79.8318 90.2963 79.8318C93.2963 79.8318 95.5463 80.2798 97.0463 81.2505C98.5088 82.1838 99.2588 83.6024 99.2588 85.5064V93.0478C99.2588 93.4958 99.2963 93.9064 99.3338 94.1678C99.3713 94.4664 99.4463 94.7278 99.5588 94.9518H93.1838C93.0713 94.6158 92.9588 94.2424 92.9213 93.8691C92.8838 93.4958 92.8463 93.1224 92.8463 92.7118ZM92.6963 88.4931C90.4838 88.4931 88.9463 88.6425 88.1588 88.9411C87.3713 89.2398 86.9588 89.7251 86.9588 90.4344C86.9588 90.9198 87.1463 91.2931 87.5588 91.5918C87.9338 91.8531 88.4963 92.0024 89.2088 92.0024C90.3713 92.0024 91.2338 91.7411 91.8338 91.1811C92.4338 90.6584 92.6963 89.8371 92.6963 88.7171V88.4931Z" fill="#FF6600"/>
<path d="M102.4 73.8662H109.262V82.4155C110.087 81.5942 110.987 80.9595 112 80.5489C113.012 80.1382 114.1 79.9142 115.3 79.9142C117.625 79.9142 119.5 80.6609 120.925 82.1542C122.35 83.6475 123.062 85.6262 123.062 88.0529C123.062 90.2929 122.35 92.0849 120.962 93.4289C119.575 94.7729 117.7 95.4449 115.375 95.4449C114.1 95.4449 112.937 95.2209 111.887 94.7355C110.837 94.2875 109.975 93.5782 109.225 92.6822C109.225 93.1675 109.187 93.6155 109.15 94.0262C109.112 94.4369 109.037 94.7729 108.962 95.0715H102.1C102.175 94.8102 102.25 94.4369 102.287 94.0262C102.325 93.6155 102.362 93.1302 102.362 92.6075V73.8662H102.4ZM116.162 87.7542C116.162 86.4475 115.862 85.4395 115.225 84.6555C114.625 83.9089 113.762 83.5355 112.712 83.5355C111.587 83.5355 110.725 83.9089 110.125 84.6182C109.525 85.3275 109.225 86.4102 109.225 87.7915C109.225 89.0982 109.525 90.1062 110.125 90.8155C110.725 91.5249 111.587 91.8982 112.675 91.8982C113.725 91.8982 114.587 91.5249 115.225 90.7782C115.862 90.0315 116.162 89.0235 116.162 87.7542Z" fill="#FF6600"/>
<path d="M138.737 92.7118C138.1 93.5704 137.237 94.2051 136.187 94.6158C135.137 95.0264 133.9 95.2504 132.4 95.2504C130.3 95.2504 128.65 94.8771 127.525 94.1304C126.4 93.3838 125.837 92.3384 125.837 90.9571C125.837 89.0904 126.812 87.7464 128.762 86.9251C130.712 86.1038 134.012 85.6558 138.625 85.6184C138.625 85.5811 138.625 85.5438 138.625 85.4691C138.625 85.3945 138.625 85.3198 138.625 85.2825C138.625 84.5358 138.4 83.9758 137.95 83.6025C137.5 83.2291 136.825 83.0425 135.887 83.0425C135.062 83.0425 134.425 83.1918 133.975 83.4531C133.525 83.7144 133.262 84.1251 133.187 84.6851H126.85C126.887 83.0425 127.675 81.8105 129.175 81.0265C130.712 80.2425 133.037 79.8318 136.187 79.8318C139.187 79.8318 141.437 80.2798 142.937 81.2505C144.4 82.1838 145.15 83.6024 145.15 85.5064V93.0478C145.15 93.4958 145.187 93.9064 145.225 94.1678C145.262 94.4664 145.337 94.7278 145.45 94.9518H139.075C138.962 94.6158 138.85 94.2424 138.812 93.8691C138.775 93.4958 138.737 93.1224 138.737 92.7118ZM138.587 88.4931C136.375 88.4931 134.875 88.6425 134.05 88.9411C133.262 89.2398 132.85 89.7251 132.85 90.4344C132.85 90.9198 133.037 91.2931 133.45 91.5918C133.825 91.8531 134.387 92.0024 135.1 92.0024C136.262 92.0024 137.125 91.7411 137.725 91.1811C138.325 90.6584 138.587 89.8371 138.587 88.7171V88.4931Z" fill="#FF6600"/>
<path d="M45.1903 57.5344C44.8153 57.4971 44.2153 57.1611 43.8028 56.8251C39.7903 52.9051 44.9278 48.3878 50.9278 45.7744V38.3078C52.3153 39.2038 53.1028 39.2411 53.1403 39.3531L57.7153 34.8358L56.1778 30.9531C69.5653 26.3611 74.9278 24.6064 85.8028 22.7771L83.8528 20.9478L87.0403 19.1558C94.3528 21.5451 101.253 22.1798 100.053 28.3024C100.353 24.1584 95.1778 22.5904 87.3028 20.3878L85.7653 21.3211L88.6903 23.7104C75.6778 25.9504 67.6528 28.4891 58.1278 31.7744L59.4403 35.1344L54.6403 39.8758C55.4278 40.0998 63.7903 42.8624 72.4528 36.8518C72.4528 36.8518 72.6403 36.7398 72.6403 36.6651C72.3778 36.2544 71.7778 35.7691 71.0653 35.1344C73.6153 35.3211 75.2653 37.5238 74.9653 39.8384H73.7653C73.8403 39.0918 73.6903 38.2704 73.4278 37.7478C66.7153 42.6384 58.9153 43.3478 52.2778 41.0331V46.8198C49.0528 47.9398 43.3153 51.4864 43.3528 54.9211C43.5778 56.5264 44.4028 57.1238 45.1903 57.5344Z" fill="black"/>
<path d="M72.645 55.6217C65.445 59.2431 58.545 62.1551 47.9325 62.5657C34.095 62.2671 31.9575 53.1204 38.4825 43.5631C44.67 33.9311 54.495 25.1951 70.095 19.7444C74.6325 18.1391 81.27 16.3471 87.6825 16.2351C96.9075 16.1604 105.87 18.9977 105.27 27.8084C104.933 34.5657 95.145 44.0484 90.0075 50.8804C87.795 53.8671 87.42 55.8084 91.2075 55.6217C104.895 54.7257 117.27 50.0217 128.783 45.1311C120.983 50.3951 80.745 70.2191 80.595 56.7044C80.6325 54.9871 81.42 53.1577 82.7325 51.2164C84.0075 49.2751 85.77 47.2591 87.6075 45.2057C90.345 42.1071 97.17 34.6404 99.4575 30.1604C103.32 21.7977 94.695 21.3871 87.2325 18.7737L84.045 20.5657L85.995 22.3951C75.12 24.1871 69.7575 25.9791 56.37 30.5711L57.9075 34.4537L53.37 38.9337C53.2575 38.8217 52.5825 38.7844 51.1575 37.8884V45.3551C45.195 47.9684 40.02 52.4857 44.0325 56.4057C44.445 56.7417 45.045 57.0777 45.42 57.1151C52.77 61.2217 72.6825 55.6217 72.645 55.6217Z" fill="#FF6600"/>
<path d="M115.672 60.4726H116.61C116.797 60.4726 116.947 60.4353 117.06 60.3979C117.172 60.3606 117.247 60.2859 117.322 60.2113C117.397 60.0993 117.397 60.0246 117.397 59.9126C117.397 59.7633 117.322 59.6139 117.21 59.5393C117.097 59.4273 116.91 59.3899 116.685 59.3899H115.672V60.4726ZM115.26 62.3393V59.0166H116.76C117.06 59.0166 117.285 59.0539 117.435 59.0913C117.585 59.1659 117.697 59.2406 117.81 59.4273C117.922 59.5766 117.96 59.7259 117.96 59.9126C117.96 60.1366 117.885 60.3606 117.735 60.5099C117.585 60.6593 117.36 60.7713 117.022 60.8086C117.135 60.8459 117.247 60.9206 117.285 60.9579C117.397 61.0699 117.547 61.2193 117.66 61.4059L118.26 62.3019H117.697L117.247 61.6299C117.135 61.4059 117.022 61.2566 116.91 61.1446C116.835 61.0326 116.76 60.9579 116.685 60.9206C116.61 60.8833 116.572 60.8459 116.497 60.8459C116.46 60.8459 116.385 60.8459 116.235 60.8459H115.672V62.3393H115.26Z" fill="#FF6600"/>
<path d="M116.593 63.8779C118.355 63.8779 119.78 62.4593 119.78 60.7046C119.78 58.9499 118.355 57.5312 116.593 57.5312C114.83 57.5312 113.405 58.9499 113.405 60.7046C113.405 62.4593 114.83 63.8779 116.593 63.8779ZM113.893 60.7046C113.893 59.2113 115.093 58.0166 116.593 58.0166C118.093 58.0166 119.293 59.2113 119.293 60.7046C119.293 62.1606 118.093 63.3926 116.593 63.3926C115.093 63.3926 113.893 62.1979 113.893 60.7046Z" fill="#FF6600"/>
</svg>

<svg width="150" height="112" fill="none" xmlns="http://www.w3.org/2000/svg"><path d="M11.613 95.089H4.45l11.025-21.206h7.913L33.925 95.09h-7.95l-1.612-3.808H13.3l-1.687 3.808zM22.45 86.65l-3.412-7.728-3.6 7.728h7.012zm13.1-12.767h6.863v21.205H35.55V73.883zm10.35 0h6.862v4.33H45.9v-4.33zm0 6.42h6.862v14.785H45.9V80.304zm10.61-6.437h6.862v8.55c.825-.822 1.725-1.456 2.737-1.867a8.658 8.658 0 013.3-.635c2.325 0 4.2.747 5.625 2.24 1.425 1.493 2.138 3.472 2.138 5.899 0 2.24-.713 4.032-2.1 5.376-1.388 1.344-3.263 2.016-5.588 2.016-1.275 0-2.437-.224-3.487-.71-1.05-.448-1.913-1.157-2.663-2.053 0 .486 0 .933-.075 1.344-.037.41-.112.747-.187 1.046h-6.863a5.95 5.95 0 00.188-1.046c.037-.41.075-.896.075-1.418V73.865h.037zm13.762 13.888c0-1.306-.3-2.315-.938-3.099-.6-.746-1.462-1.12-2.512-1.12-1.125 0-1.988.374-2.625 1.083-.6.71-.9 1.792-.9 3.174 0 1.306.3 2.314.9 3.023.6.71 1.462 1.083 2.55 1.083 1.087 0 1.912-.373 2.55-1.12.637-.747.975-1.755.975-3.024zm22.574 4.958c-.637.858-1.5 1.493-2.55 1.904-1.05.41-2.287.634-3.787.634-2.1 0-3.75-.373-4.875-1.12-1.125-.746-1.688-1.792-1.688-3.173 0-1.867.975-3.21 2.925-4.032 1.95-.821 5.25-1.27 9.863-1.307v-.335c0-.747-.225-1.307-.675-1.68-.45-.374-1.125-.56-2.063-.56-.825 0-1.462.149-1.912.41-.45.261-.713.672-.788 1.232H80.96c.037-1.642.825-2.874 2.325-3.659 1.537-.783 3.862-1.194 7.012-1.194 3 0 5.25.448 6.75 1.419 1.463.933 2.213 2.351 2.213 4.255v7.542c0 .448.037.858.075 1.12.037.298.112.56.225.784h-6.375c-.113-.336-.225-.71-.263-1.083a11.257 11.257 0 01-.075-1.157zm-.15-4.219c-2.212 0-3.75.15-4.537.448-.788.299-1.2.784-1.2 1.493 0 .486.187.86.6 1.158.375.261.937.41 1.65.41 1.162 0 2.025-.26 2.625-.82.6-.524.862-1.345.862-2.465v-.224zm9.704-14.627h6.862v8.55c.825-.822 1.725-1.456 2.738-1.867a8.656 8.656 0 013.3-.635c2.325 0 4.2.747 5.625 2.24 1.425 1.493 2.137 3.472 2.137 5.899 0 2.24-.712 4.032-2.1 5.376-1.387 1.344-3.262 2.016-5.587 2.016-1.275 0-2.438-.224-3.488-.71-1.05-.448-1.912-1.157-2.662-2.053 0 .486-.038.933-.075 1.344-.038.41-.113.747-.188 1.046H102.1a5.87 5.87 0 00.187-1.046c.038-.41.075-.896.075-1.418V73.865h.038zm13.762 13.888c0-1.306-.3-2.315-.937-3.099-.6-.746-1.463-1.12-2.513-1.12-1.125 0-1.987.374-2.587 1.083-.6.71-.9 1.792-.9 3.174 0 1.306.3 2.314.9 3.023.6.71 1.462 1.083 2.55 1.083 1.05 0 1.912-.373 2.55-1.12.637-.747.937-1.755.937-3.024zm22.575 4.958c-.637.858-1.5 1.493-2.55 1.904-1.05.41-2.287.634-3.787.634-2.1 0-3.75-.373-4.875-1.12-1.125-.746-1.688-1.792-1.688-3.173 0-1.867.975-3.21 2.925-4.032 1.95-.821 5.25-1.27 9.863-1.307v-.335c0-.747-.225-1.307-.675-1.68-.45-.374-1.125-.56-2.063-.56-.825 0-1.462.149-1.912.41-.45.261-.713.672-.788 1.232h-6.337c.037-1.642.825-2.874 2.325-3.659 1.537-.783 3.862-1.194 7.012-1.194 3 0 5.25.448 6.75 1.419 1.463.933 2.213 2.351 2.213 4.255v7.542c0 .448.037.858.075 1.12.037.298.112.56.225.784h-6.375c-.113-.336-.225-.71-.263-1.083-.037-.373-.075-.747-.075-1.157zm-.15-4.219c-2.212 0-3.712.15-4.537.448-.788.299-1.2.784-1.2 1.493 0 .486.187.86.6 1.158.375.261.937.41 1.65.41 1.162 0 2.025-.26 2.625-.82.6-.524.862-1.345.862-2.465v-.224z" fill="#F60"/><path d="M45.19 57.534c-.375-.037-.975-.373-1.387-.709-4.013-3.92 1.125-8.437 7.125-11.05v-7.467c1.387.896 2.175.933 2.212 1.045l4.575-4.517-1.537-3.883c13.387-4.592 18.75-6.347 29.625-8.176l-1.95-1.83 3.187-1.791c7.313 2.39 14.213 3.024 13.013 9.146.3-4.144-4.875-5.712-12.75-7.914l-1.538.933 2.925 2.39c-13.012 2.24-21.037 4.778-30.562 8.063l1.312 3.36-4.8 4.742c.788.224 9.15 2.986 17.813-3.024 0 0 .187-.112.187-.187-.262-.41-.862-.896-1.575-1.53 2.55.186 4.2 2.389 3.9 4.703h-1.2c.075-.746-.075-1.568-.337-2.09-6.713 4.89-14.513 5.6-21.15 3.285v5.787c-3.225 1.12-8.963 4.666-8.925 8.101.225 1.605 1.05 2.203 1.837 2.613z" fill="#000"/><path d="M72.645 55.622c-7.2 3.621-14.1 6.533-24.712 6.944-13.838-.299-15.976-9.446-9.45-19.003 6.187-9.632 16.012-18.368 31.612-23.819 4.537-1.605 11.175-3.397 17.588-3.509 9.224-.075 18.187 2.763 17.587 11.573-.337 6.758-10.125 16.24-15.263 23.072-2.212 2.987-2.587 4.928 1.2 4.742 13.688-.896 26.063-5.6 37.576-10.49-7.8 5.263-48.038 25.087-48.188 11.572.037-1.717.825-3.546 2.138-5.488 1.274-1.94 3.037-3.957 4.874-6.01 2.738-3.099 9.563-10.566 11.85-15.046 3.863-8.362-4.762-8.773-12.224-11.386l-3.188 1.792 1.95 1.83c-10.875 1.79-16.238 3.582-29.625 8.174l1.538 3.883-4.538 4.48c-.112-.112-.787-.15-2.212-1.046v7.467c-5.963 2.613-11.138 7.13-7.126 11.05.413.337 1.013.673 1.388.71 7.35 4.107 27.263-1.493 27.225-1.493zm43.027 4.851h.938c.187 0 .337-.038.45-.075.112-.037.187-.112.262-.187.075-.112.075-.186.075-.298a.46.46 0 00-.187-.374c-.113-.112-.3-.15-.525-.15h-1.013v1.084zm-.412 1.866v-3.322h1.5c.3 0 .525.037.675.074.15.075.262.15.375.336a.75.75 0 01.15.486.846.846 0 01-.225.597c-.15.15-.375.261-.713.299a.81.81 0 01.263.149c.112.112.262.261.375.448l.6.896h-.563l-.45-.672a1.809 1.809 0 00-.337-.485.635.635 0 00-.225-.224c-.075-.038-.113-.075-.188-.075h-.825v1.493h-.412z" fill="#F60"/><path d="M116.593 63.878a3.178 3.178 0 003.187-3.173 3.178 3.178 0 00-3.187-3.174 3.178 3.178 0 00-3.188 3.174 3.178 3.178 0 003.188 3.173zm-2.7-3.173c0-1.494 1.2-2.688 2.7-2.688 1.5 0 2.7 1.194 2.7 2.688 0 1.456-1.2 2.688-2.7 2.688-1.5 0-2.7-1.195-2.7-2.688z" fill="#F60"/></svg>
